X:358
T:El Ringo-Rango (CT 354)
R:Xiraldilla
C:Tradicional
S:Msica Tradicional Asturiana, (C) Tello & Tito. Asturies, 2001.
S:http://pagina.de/MusTradAst <telloytito@asturies.org>
N:Xiraldilla, transcrita en Grau.
N:Se la conoce con el nombre de El ringo-rango.
A:Asturies
O:Grau
Z:Cancioneru de Torner 354
M:3/8
L:1/8
Q:3/8=88
K:G
|G2 B|ddd|e2 e|d3|e2 d|cde|d2 d|B2 z|
G2 B|ddd|e2 e|d3|e2 d|cde|d2 d|B2 z|
GGB|d3|ddd|cBA|G3|
AAA|D3|BBB|cBA|G3|
AAA|D3|BBB|BAB|dcA|G3-|G||
W:Mariquina l'utru da
W:estren un mandiln nuevu,
W:y rompio-ylu na Ribera
W:el diau d'un habaneru.
W:A tu mandil,
W: chai un ringo rango
W:de los que echabes
W:con el habaneru,
W:que yo pa m,
W:anque me pagues,
W:ya non te quiero.
W:
